app/dist/common/images/sumitomo.svg

<svg height="18" width="18" xmlns="http://www.w3.org/2000/svg"><path d="m0 0h18v18h-18z" fill="#82dade"/><path d="m15 8.53-2.15-1.8-.56.47-1.12-.93.56-.47-2.16-1.8-.56.47-.56-.47-2.18 1.8.57.47-1.11.93-.55-.47-2.18 1.8.56.47-.56.47 2.18 1.8.55-.47 1.11.93-.57.47 2.18 1.8.56-.48.56.48 2.19-1.8-.57-.47 1.12-.93.56.47 2.13-1.8-.56-.47zm-6 1.4-1.1-.93 1.1-.93 1.12.93-1.11.93z" fill="#fff"/></svg>

<!-- by TradingView --><svg xmlns="http://www.w3.org/2000/svg" width="18" height="18"><path fill="#82DADE" d="M0 0h18v18H0z"/><path d="M15 8.53l-2.15-1.8-.56.47-1.12-.93.56-.47L9.57 4l-.56.47L8.45 4 6.27 5.8l.57.47-1.11.93-.55-.47L3 8.53l.56.47-.56.47 2.18 1.8.55-.47 1.11.93-.57.47L8.45 14l.56-.48.56.48 2.19-1.8-.57-.47 1.12-.93.56.47L15 9.47 14.44 9l.56-.47zm-6 1.4L7.9 9 9 8.07l1.12.93-1.11.93z" fill="#fff"/></svg>
